fs/video_360_24_filled.svg

<svg viewBox="0 0 24 24" fill="none" xmlns="http://www.w3.org/2000/svg" height="1em" width="1em">
  <path d="M4.69176 4.01693C3.31849 3.82436 1.99999 4.87485 2 6.3157L2.00005 17.6845C2.00006 19.125 3.31791 20.1754 4.69106 19.9829C4.88819 19.9553 5.10041 19.927 5.32709 19.8987C6.91387 19.7004 9.20941 19.4997 12.0001 19.4997C15.1894 19.4997 17.732 19.7618 19.3091 19.9829C20.6822 20.1754 22.0001 19.125 22.0001 17.6845V6.3157C22.0001 4.87484 20.6816 3.82436 19.3083 4.01693C17.7324 4.23792 15.1915 4.49973 12.0001 4.49973C8.80859 4.49973 6.2677 4.23792 4.69176 4.01693ZM19 18.4281C18.0665 18.3085 16.8855 18.1866 15.5 18.1036V14.9996H18C18.5523 14.9996 19 15.4473 19 15.9996V18.4281ZM13.9994 18.0334C13.3649 18.0119 12.6974 17.9997 12.0001 17.9997C11.3026 17.9997 10.6351 18.0119 10.0006 18.0334C10.0002 18.0222 10 18.011 10 17.9997V14.9997C10 14.4474 10.4477 13.9997 11 13.9997H13C13.5523 13.9997 14 14.4474 14 14.9997V17.9997C14 18.011 13.9998 18.0222 13.9994 18.0334ZM8.5 18.1036C7.11447 18.1866 5.93345 18.3085 5 18.4281V15.9996C5 15.4473 5.44772 14.9996 6 14.9996H8.5V18.1036ZM12 12.9997C11.1716 12.9997 10.5 12.3281 10.5 11.4997C10.5 10.6713 11.1716 9.99969 12 9.99969C12.8284 9.99969 13.5 10.6713 13.5 11.4997C13.5 12.3281 12.8284 12.9997 12 12.9997ZM8.5 12.4997C8.5 13.3281 7.82843 13.9997 7 13.9997C6.17157 13.9997 5.5 13.3281 5.5 12.4997C5.5 11.6713 6.17157 10.9997 7 10.9997C7.82843 10.9997 8.5 11.6713 8.5 12.4997ZM18.5 12.4997C18.5 13.3281 17.8284 13.9997 17 13.9997C16.1716 13.9997 15.5 13.3281 15.5 12.4997C15.5 11.6713 16.1716 10.9997 17 10.9997C17.8284 10.9997 18.5 11.6713 18.5 12.4997Z" fill="#212121"/>
</svg>

<svg viewBox="0 0 24 24" fill="none" xmlns="http://www.w3.org/2000/svg" height="1em" width="1em">
  <path d="M4.692 4.017C3.318 3.824 2 4.875 2 6.316v11.369c0 1.44 1.318 2.49 2.691 2.298.197-.028.41-.056.636-.084a54.28 54.28 0 0 1 6.673-.4c3.19 0 5.732.263 7.31.484 1.372.192 2.69-.858 2.69-2.299V6.316c0-1.441-1.318-2.492-2.692-2.3-1.576.222-4.117.484-7.308.484s-5.732-.262-7.308-.483ZM19 18.428a52.22 52.22 0 0 0-3.5-.324V15H18a1 1 0 0 1 1 1v2.428Zm-5-.395a59.061 59.061 0 0 0-4 0V15a1 1 0 0 1 1-1h2a1 1 0 0 1 1 1v3.033Zm-5.5.07a52.216 52.216 0 0 0-3.5.325V16a1 1 0 0 1 1-1h2.5v3.104ZM12 13a1.5 1.5 0 1 1 0-3 1.5 1.5 0 0 1 0 3Zm-3.5-.5a1.5 1.5 0 1 1-3 0 1.5 1.5 0 0 1 3 0Zm10 0a1.5 1.5 0 1 1-3 0 1.5 1.5 0 0 1 3 0Z" fill="#212121"/>
</svg>
